X:58
T:Eresz alatt fészkel
M:4/4
L:1/4
K:D
A,/D/C/D/ E>F | E<D D z |
A/A/G/F/ A>G | F<E E z |
A/A/G/F/ A<D | A,/D/E/G/ F/E/ A |
D/D/C/D/ E>F | E<D D z |

